T: Helium Disciples
M: 4/4
L: 1/8
K: Dmaj
d2 AF DFAF | GDGA B/c/B AG | F/G/A dA fAdA | c/d/c ed cABc | dBAF D2 A/G/F | G3 A B2 AG | FAdA fAdA | cdec d2 :|F2 dA fAdA | G2 dG eGdG | F2 dF eFdA | cded cAGE |F/G/A dA fA d2 | G2 gG fGeG | c/d/c ed cA c/d/e | cdec d2 :|
